X:72
T:The Gelding of the Devil
Z:Jack Campin, http://www.campin.me.uk/
F:Jack Campin's Nine-Note Tunebook
% last edit 03-02-2013
S:Simpson, The British Broadside Ballad and Its Music
M:3/4
L:1/4
Q:3/4=92
K:D
A|DDE|F>GF|E2F| G>AG|F2G|(AB)c|dDD|D2:|
d|dBB|Bc d|cA2|(AG)F|GAB| AB c|dDD|D2:|

